X:1
T:Zur Nacht
T:Karl Heinrich Zöllner 1827
T:Theodor Körner
T:Zur Nacht
T:CPDL - Creative Commons Attribution Non Commercial 3.0
T:CPDL - Creative Commons Attribution Non Commercial 3.0
T:CPDL - Creative Commons Attribution Non Commercial 3.0
T:CPDL - Creative Commons Attribution Non Commercial 3.0
T:CPDL - Creative Commons Attribution Non Commercial 3.0
T:CPDL - Creative Commons Attribution Non Commercial 3.0
T:CPDL - Creative Commons Attribution Non Commercial 3.0
C:Karl Heinrich Zöllner
Z:Theodor Körner
Z:CPDL - Creative Commons Attribution Non Commercial 3.0
%%score [ 1 2 3 4 ]
L:1/8
Q:1/4=80
M:3/4
K:F
V:1 treble-8 nm="Tenor\n1"
V:2 treble-8 nm="Tenor\n2"
V:3 bass nm="Bass\n1"
V:4 bass nm="Bass\n2"
V:1
"^Langsam" f>e |!>(! (e2 d2)!>)! d>=c |!>(! (c2 B2)!>)! z2 | g>g gf ed |!>(! (d2 ^c2)!>)! z2 | z6 | %6
w: 1.~Gu- te|Nacht! _ gu- te|Nacht! _|Al- len Mü- den sei's ge-|bracht. _||
w: 2.~Schlum- mert|süß! _ schlum- mert|süß! _|träumt euch eu- er Pa- ra-|dies! _||
 cc c d/e/ f/e/ d/c/ | c>=B B z f e/f/ | g>f ed cB | B>A A2!<(! AA!<)! | d3 d cc | %11
w: Neigt der Tag sich * still * zum *|En- * de, ru- hen *|al- le fleiß'- * gen _|Hän- * de, bis der|Mor- gen neu er-|
w: Wem der Kum- mer * raubt * den *|Frie- * den, sei ein *|schö- ner Traum _ be- *|schie- * den, als ob|Hil- fe ihn be-|
!>(! (c2 =B2)!>)! _B>B | A4!p! G G/A/ | F2 z2 F>G | A4"^cresc." A>B | c4 z2 | %16
w: wacht. _ Gu- te|Nacht! gu- te *|Nacht! Geht zur|Ruh! geht zur|Ruh!|
w: grüß'. _ Schlum- mert|süß! schlum- mert *|süß! Gu- te|Nacht! gu- te|Nacht!|
 !>!_e>e e/d/"^dim." d/c/ c/B/ B/A/ | B4"^cresc." d=e | f3 f ed | ^c2 z2 e>"^cresc."e | %20
w: schließt die mü- * den * Au- * gen *|zu, schließt die|mü- den Au- gen|zu! Geht zur|
w: schlum- mert, bis * der * Tag * er- *|wacht, schlum- mert,|bis der Tag er-|wacht! Gu- te|
 f2 z2!f! dd | ^c2 z2!p! ee | f3 f ed | ^c2 z2!pp! ee | e3 g fe |!>(! ed!>)! d2 z2 | %26
w: Ruh! geht zur|Ruh! schließt die|mü- den Au- gen|zu! Stil- ler|wird es auf den|Stra- * ßen;|
w: Nacht! gu- te|Nacht! schlum- mert,|bis der Tag er-|wacht! Schlum- mert,|bis der neu- e|Mor- * gen|
"^cresc." ^f>f fa gf |!>(! ^fg!>)! g2 z2 |!f! g>g g"^dim."=f _ed | ^c4 =e>e | f4"^cresc." ^c>c | %31
w: schon den Wäch- ter hört man|bla- * sen,|und die Nacht ruft al- len|zu: Geht zur|Ruh! geht zur|
w: kommt mit sei- nen neu- en|Sor- * gen,|oh- ne Furcht; der Va- ter|wacht! Gu- te|Nacht! Gu- te|
 d4 dd | d3 d"^dim." d/^c/ =B/c/ | d4 |] %34
w: Ruh! schließt die|mü- den Au- * gen *|zu!|
w: Nacht! oh- ne|Furcht, der Va- * ter *|wacht!|
V:2
 d>^c |!>(! (^c2 d2)!>)! B>A |!>(! (A2 G2)!>)! BB | B3 B B=B |!>(! A4!>)! z2 |!p! =c>c cc cc | %6
w: 1.~Gu- te|Nacht! _ Gu- te|Nacht! _ Al- len|Mü- den sei's ge-|bracht.|Neigt der Tag sich still zum|
w: 2.~Schlum- mert|süß! _ schlum- mert|süß! _ träumt euch|eu- er Pa- ra-|dies!|Wem der Kum- mer raubt den|
 c2 c2 z2 | f3 =B BB | _B4 AG | G>F F2!<(! FF!<)! | F3 F FF |!>(! F4!>)! G>G | F4!p! FE | %13
w: En- de,|ru- hen al- le|fleiß'- gen _|Hän- * de, * *||||
w: Frie- den,|sei ein schö- ner|Traum be- *|schie- * den, * *||||
 F2 z2 z2 | z4"^cresc." F>G | A4 cc | (c2 B)"^dim."A G^F | G4 z2 | !>!d>d d=B BB | %19
w: ||Ruh! schließt die|mü- * den Au- gen|zu,|schließt die mü- den Au- gen|
w: ||Nacht! schlum- mert,|bis _ der Tag er-|wacht,|schlum- mert, bis der Tag er-|
 A2 z2 ^c>"^cresc."c | d2 z2!f! ^GG | A2 z2!p! ^cc | d3 d B=B | A2 z2!pp! ^cc | ^c3 e dc | %25
w: zu! Geht zur|Ruh! geht zur|||||
w: wacht! Gu- te|Nacht! gu- te|||||
!>(! ^cd!>)! d2 z2 |"^cresc." _e>e ee ee |!>(! d2!>)! d2!f! BB | B3"^dim." B BB | G4 G>G | %30
w: ||bla- sen, und die|Nacht ruft al- len|zu: Geht zur|
w: ||Sor- gen, oh- ne|Furcht; der Va- ter|wacht! Gu- te|
 A4"^cresc." A>A | =B4 z2 | A>A FD"^dim." AG | F4 |] %34
w: Ruh! geht zur|Ruh!|schließt die mü- den Au- gen|zu!|
w: Nacht! Gu- te|Nacht!|oh- ne Furcht, der Va- ter|wacht!|
V:3
 A,>G, |!>(! (G,2 F,2)!>)! ^F,>F, |!>(! (^F,2 G,2)!>)! D,=F, | E,3 D, G,F, |!>(! (F,2 E,2)!>)! z2 | %5
w: 1.~Gu- te|Nacht! _ Gu- te|Nacht! _ Al- len|Mü- den sei's ge-|bracht. _|
w: 2.~Schlum- mert|süß! _ schlum- mert|süß! _ träumt euch|eu- er Pa- ra-|dies! _|
!p! B,>B, B,B, B,B, | (B,2 A,2) _A,2 | _A,2 G,2 G,F, | F,E,/F,/ G,F, E,E, | %9
w: Neigt der Tag sich still zum|En- * de,|ru- hen al- le|fleiß'- * * * gen, fleiß'- gen|
w: Wem der Kum- mer raubt den|Frie- * den,|sei ein Traum, ein|schö- * * * ner Traum be-|
 E,>F, F,2!<(! F,_E,!<)! | D,3 D, F,C, |!>(! D,4!>)! E,>E, | F,4!p! D,=C, | F,2 z2 z2 | %14
w: Hän- * de, bis der|Mor- gen neu er-|wacht. Gu- te|Nacht! gu- te|Nacht!|
w: schie- * den, als ob|Hil- fe ihn be-|grüß'. Schlum- mert|süß! schlum- mert|süß!|
 C,>E, F,2 z2 | F,>G, A,2"^cresc." A,G, | (^F,2 G,)"^dim."A, B,C | B,4 z2 | !>!=B,>B, B,D, E,F, | %19
w: Geht zur Ruh!|geht zur Ruh! schließt die|mü- * den Au- gen|zu,|schließt die mü- den Au- gen|
w: Gu- te Nacht!|gu- te Nacht! schlum- mert,|bis _ der Tag er-|wacht,|schlum- mert, bis der Tag er-|
 E,2 z2 A,>"^cresc."A, | (A,F, D,2)!f! E,F, | E,"^dim."A,B,A,!p! ^G,=G, | !>!G,F, E,D, G,^G, | %23
w: zu! Geht zur|Ruh! _ _ geht zur|Ruh! _ _ _ schließt die|mü- * * den Au- gen|
w: wacht! Gu- te|Nacht! _ _ gu- te|Nacht! _ _ _ schlum- mert,|bis _ _ der Tag er-|
 A,2 z2 z2 |!pp! B,>A, G,B, A,A, |!>(! A,2!>)! A, A, G,"^cresc."F, | !^!A,3 ^F, G,A, | %27
w: zu!|Stil- ler wird es auf den|Stra- ßen; schon _ den|Wäch- ter hört man|
w: wacht!|Schlum- mert, bis der neu- e|Mor- gen kommt _ mit|sei- nen neu- en|
!>(! A,B,!>)! B,2!f! G,G, | _E,3"^dim." D, G,F, | =E,4 ^C,>C, | D,4"^cresc." E,>E, | F,4 F,F, | %32
w: |||Ruh! geht zur|Ruh! schließt die|
w: |||Nacht! Gu- te|Nacht! oh- ne|
 (F,2 D,)F,"^dim." E,E, | D,4 |] %34
w: mü- * den Au- gen|zu!|
w: Furcht, _ der Va- ter|wacht!|
V:4
 A,,>A,, |!>(! B,,4!>)! D,>D, |!>(! G,,4!>)! G,,G,, | G,,3 G,, G,,^G,, |!>(! A,,4!>)! z2 | %5
w: |||||
w: |||||
!p! E,>F, ^F,G, E, D,/E,/ | =F,4 F,2 | D,>D, D,D, _D,D, | C,3 C, C,^C, | ^C,>D, D,2!<(! D,=C,!<)! | %10
w: ||ru- hen al- le, al- le|fleiß'- gen, fleiß'- gen|Hän- * de, * *|
w: ||sei ein schö- ner Traum, ein|schö- ner Traum be-|schie- * den, * *|
 B,,3 B,, A,,_A,, |!>(! G,,4!>)! _D,>D, | (C,>^C, D,2)!p! B,,=C, | F,,2 z2 z2 | z6 | %15
w: |||||
w: |||||
 F,>E, F,2"^cresc." _E,E, | D,3"^dim." D, D,D, | G,,4 z2 | !>!^G,>G, G,^G,, G,,G,, | %19
w: Geht zur Ruh! * *||||
w: Gu- te Nacht! * *||||
 A,,2 z2 A,,>"^cresc."A,, | A,,2 z2!f! A,,A,, | A,,2 z2!p! A,,A,, | A,,3 A,, A,,A,, | A,,2 z2 z2 | %24
w: |||||
w: |||||
!pp! G,>A, B,^C, D,G, |!>(! G,F,!>)! F, F, E,"^cresc."D, | !^!=C,3 C, C,C, |!>(! B,,2!>)! B,,2 z2 | %28
w: ||||
w: ||||
!f! B,,>B,, B,,"^dim."B,, B,,B,, | B,,4 B,,>B,, | A,,4"^cresc." A,,>A,, | ^G,,2 G,,3 G,, | %32
w: und die Nacht ruft al- len|zu: Geht zur|Ruh! geht zur|Ruh! schließt die|
w: oh- ne Furcht; der Va- ter|wacht! Gu- te|Nacht! Gu- te|Nacht! oh- ne|
 A,,3 A,,"^dim." A,,A,, | D,,4 |] %34
w: mü- den Au- gen|zu!|
w: Furcht, der Va- ter|wacht!|

